icons/light-bulb-17.svg

<svg width="16" height="17" viewBox="0 0 16 17" fill="none" xmlns="http://www.w3.org/2000/svg">
<path fill-rule="evenodd" clip-rule="evenodd" d="M8 3.29138C6.22775 3.29138 5 4.55888 5 6.10388C5 6.84188 5.318 7.32263 5.738 7.83188L5.8985 8.02163C6.06575 8.21963 6.251 8.43863 6.40325 8.65763C6.61625 8.96588 6.806 9.32963 6.869 9.77513C6.88401 9.91985 6.84237 10.0648 6.75281 10.1794C6.66324 10.2941 6.53273 10.3696 6.38868 10.3901C6.24464 10.4106 6.09825 10.3744 5.98028 10.2893C5.86231 10.2041 5.78192 10.0766 5.756 9.93338C5.726 9.72188 5.63375 9.52313 5.4785 9.29813C5.35159 9.12146 5.21592 8.95125 5.072 8.78813C5.009 8.71313 4.94225 8.63438 4.871 8.54813C4.40075 7.97888 3.875 7.24088 3.875 6.10388C3.875 3.89888 5.64725 2.16638 8 2.16638C10.3527 2.16638 12.125 3.89888 12.125 6.10388C12.125 7.24088 11.5992 7.97888 11.129 8.54813C11.0577 8.63438 10.991 8.71313 10.928 8.78738C10.7728 8.97113 10.6407 9.12713 10.5223 9.29813C10.3663 9.52313 10.2748 9.72188 10.2448 9.93338C10.2343 10.0065 10.2096 10.0769 10.1719 10.1404C10.1343 10.204 10.0845 10.2595 10.0254 10.3039C9.96634 10.3482 9.89909 10.3805 9.82753 10.3988C9.75598 10.4171 9.6815 10.4212 9.60837 10.4108C9.53524 10.4003 9.46489 10.3756 9.40132 10.3379C9.33775 10.3003 9.28222 10.2505 9.23789 10.1914C9.19356 10.1323 9.16131 10.0651 9.14297 9.99354C9.12463 9.92198 9.12056 9.84751 9.131 9.77438C9.194 9.32963 9.38375 8.96588 9.59675 8.65763C9.749 8.43863 9.93425 8.21963 10.1015 8.02163C10.1578 7.95563 10.2118 7.89188 10.2613 7.83188C10.682 7.32263 11 6.84188 11 6.10388C11 4.55888 9.77225 3.29138 8 3.29138ZM6.5 13.6039C6.5 13.4547 6.55926 13.3116 6.66475 13.2061C6.77024 13.1006 6.91332 13.0414 7.0625 13.0414H8.9375C9.08668 13.0414 9.22976 13.1006 9.33525 13.2061C9.44074 13.3116 9.5 13.4547 9.5 13.6039C9.5 13.7531 9.44074 13.8961 9.33525 14.0016C9.22976 14.1071 9.08668 14.1664 8.9375 14.1664H7.0625C6.91332 14.1664 6.77024 14.1071 6.66475 14.0016C6.55926 13.8961 6.5 13.7531 6.5 13.6039ZM6.3125 11.1664C6.16332 11.1664 6.02024 11.2256 5.91475 11.3311C5.80926 11.4366 5.75 11.5797 5.75 11.7289C5.75 11.8781 5.80926 12.0211 5.91475 12.1266C6.02024 12.2321 6.16332 12.2914 6.3125 12.2914H9.6875C9.83668 12.2914 9.97976 12.2321 10.0852 12.1266C10.1907 12.0211 10.25 11.8781 10.25 11.7289C10.25 11.5797 10.1907 11.4366 10.0852 11.3311C9.97976 11.2256 9.83668 11.1664 9.6875 11.1664H6.3125Z" fill="#272431"/>
</svg>

<svg xmlns="http://www.w3.org/2000/svg" width="16" height="17" viewBox="0 0 16 17"><path fill-rule="evenodd" d="M8 3.291c-1.772 0-3 1.268-3 2.813 0 .738.318 1.219.738 1.728l.16.19c.168.198.353.417.505.636.213.308.403.672.466 1.117a.562.562 0 01-1.113.158c-.03-.211-.122-.41-.277-.635a6.524 6.524 0 00-.407-.51l-.201-.24c-.47-.57-.996-1.307-.996-2.444 0-2.205 1.772-3.938 4.125-3.938 2.353 0 4.125 1.733 4.125 3.938 0 1.137-.526 1.875-.996 2.444l-.201.24c-.155.183-.287.34-.406.51-.156.225-.247.424-.277.635a.562.562 0 01-1.114-.159c.063-.444.253-.808.466-1.116.152-.22.337-.438.505-.636l.16-.19c.42-.51.738-.99.738-1.728C11 4.559 9.772 3.29 8 3.29zM6.5 13.604a.563.563 0 01.563-.563h1.875a.562.562 0 110 1.125H7.062a.563.563 0 01-.562-.562zm-.188-2.438a.562.562 0 100 1.125h3.375a.562.562 0 000-1.125H6.313z"/></svg>
